X: 4047
T: DROGHEDA LASSES
R: Reel.
%R: reel
B: James Kerr "Merry Melodies" v.4 p.08 #47
Z: 2016 John Chambers <jc:trillian.mit.edu>
M: C|
L: 1/8
K: Edor	% and D
|:\
vB2(GB) EBGB | A2(FA) DAFA |\
B2(GB) EBGB |[1 egfa gedc :|[2 egfd e2(fg) ||
|:\
afdf g2(ec) | dBAG F2D2 |\
[1 afdf g2(fg) | egfd e2(fg) :|\
[2 EGFA GABd | egfa gedc |]

%%sep 1 1 500
%%sep 1 1 500

